X: 1363
T: Mevlâm Birçok Dert Vermiş
C: Kemal Çığrık
O: Turkey
F: http://compmusic.upf.edu/node/140
N: ussak--turku--sofyan--mevlam_bircok--malatya
N: makam= ussak
N: form= turku
N: usul= sofyan = 4/4
M: 4/4
L: 1/16
K: C _2/4B   
Q: 1/4=60
%%MIDI tuningsystem comma53
e{d}d3 d{c}c3 cB2A d/c/d/e/d2  | d{c}c3 c{B}B3 BA2G c/B/c/d/c2  | 
w:  ARANAĞME  |   | 
cB2c B2AA A3A AAA2  | e{d}d3 d{c}c3 cB2A d/c/d/e/d2  | 
w:   |  ARANAĞME  | 
d{c}c3 c{B}B3 BA2G c/B/c/d/c2  | cB2c B2AA A3A AAA2  | 
w:   |   | 
z2^3/4FG A2A2 A2A2 A4  | GG3 c2B2 {c}BAA2 A4  | \
w:  Mev lâm  bir çok  dert  ver miş    |  Be ra ber  der *  man  *  ver miş    | 
z2^3/4FG A2A2 A2A2 A4  | 
w:  Mev lâm  bir çok  dert  ver miş    | 
GG3 c2B2 {c}BAA2 A4  | z2cd e2e2 e3e fefe  | \
w:  Be ra ber  der *  man  *  ver miş    |  Bu  tü ken mez  der di me    | 
e{g}e3 eded d/e/cB2 e4  | 
w:  Ne *  den  i laç  *  *  ver *  *  me miş    | 
edd2 d/e/cc2 cB2A d/c/d/e/d2  | d/e/cc2 c/d/BB2 B/c/A3 c/B/c/d/c2  | 
w:  Za *  lim  ağ *  *  lat ma  be *  ni    |  Der *  *  de  bağ *  *  lat ma  *  be ni    | 
cB2A A2cB BA3 A4  | ed3 dc3 cB3 d/c/d/e/d2  | \
w:  Gü lüp  *  sız lat *  ma  be ni    |  Di ley  di ley  di ley  yâr    | 
dc3 cB3 BA3 c/B/c/d/c2  | 
w:  Di ley  di ley  di ley  yâr    | 
cB2c BA3 A8  | e{d}d3 d{c}c3 cB2A d/c/d/e/d2  | \
w:  Di ley  *  di ley  yâr    |  ARANAĞME  | 
d{c}c3 c{B}B3 BA2G c/B/c/d/c2  | 
w:   | 
cB2c B2AA A3A AAA2  | e{d}d3 d{c}c3 cB2A d/c/d/e/d2  | 
w:   |  ARANAĞME  | 
d{c}c3 c{B}B3 BA2G c/B/c/d/c2  | cB2c B2AA A3A AAA2  | 
w:   |   | 
z2^3/4FG A2A2 A2A2 A4  | GG3 c2B2 {c}BAA2 A4  | \
w:  Mev lâm  bir çok  dert  ver miş    |  Be ra ber  der *  man  *  ver miş    | 
z2^3/4FG A2A2 A2A2 A4  | 
w:  Mev lâm  bir çok  dert  ver miş    | 
GG3 c2B2 {c}BAA2 A4  | z2cd e2e2 e3e fefe  | \
w:  Be ra ber  der *  man  *  ver miş    |  Bu  tü ken mez  der di me    | 
e{g}e3 eded d/e/cB2 e4  | 
w:  Ne *  den  i laç  *  *  ver *  *  me miş    | 
edd2 d/e/cc2 cB2A d/c/d/e/d2  | d/e/cc2 c/d/BB2 B/c/A3 c/B/c/d/c2  | 
w:  Za *  lim  ağ *  *  lat ma  be *  ni    |  Der *  *  de  bağ *  *  lat ma  *  be ni    | 
cB2A A2cB BA3 A4  | ed3 dc3 cB3 d/c/d/e/d2  | \
w:  Gü lüp  *  sız lat *  ma  be ni    |  Di ley  di ley  di ley  yâr    | 
dc3 cB3 BA3 c/B/c/d/c2  | 
w:  Di ley  di ley  di ley  yâr    | 
cB2c BA3 A8  | |


